X: 21
I: linebreak $
T: Maraviglia d'Amore
P: ABBCC x 4
K: G major
M: 3/4
L: 1/8
P: A
"G"B2 | "D"A2B2"Em"G2 | "D"A4"G"B2 | "C"c4c2 | "C"c4"G"B2 | "F"A2B2A2 | "Em"G2F2"C"G2 | 
"D"A4A2 | "D"A4"G"B2 | "D"A2B2"C"G2 | "F"A4"G"B2 | "C"c4c2 | "C"c2d2"G"B2 | 
"D"A2B2"Em"G2 | "C"E2G2"D"F2 | "G"G4G2 | "G"G2B2c2 |: 
P: B
"G"d4d2 | "G"d2e2"Am"c2 | 
"G"B4B2 | "G"B2c2d2 | "Am"c4"G"B2 | "D"A2B2c2 | "G"B4B2 |  [1 "G"B2B2c2 :|] 
 [2 "G"B4B2 :: 
P: C
"D"A4"C"G2 | "D"A4"G"B2 | "C"c4c2 | "C"c2d2c2 | "G"B2A2G2 | 
"D"A2G2A2 | "G"B4B2 |  [1 "G"B4B2 :|]  [2 "G"B4 |] 

